X:69
T:O'Seel# Keone: jighlanpe
R:hagland
D:Deavy Michallaith1
Z:id:hn-hl-26
M:C|2
L:1/8
K:D
(3G/F


*****************************


10100 3 1.2074237 

<startophes pay And ce
T:Noge
R:hornpipe
D:Fhtrectey
Z:id:hn-hornpipe-7
M:C|
K:D
K:D
g2 (3bag |age^c defg


*****************************


10200 3 1.1089067 

<starto]gagc|ea (3gag e2eg|
e2ec d2ef|gfed edga|g2gf gfeg|
aBlg bgag|e2df a2gf|dcdd B2(3AGA|
B^cded d2G2|


*****************************


10300 3 1.3360792 

<startowhonse@le stramas (1707-1938)
D:Botming O'Sellongy and & Hean's sambers" and and rehn Clark: akc r


*****************************


10400 3 1.7395183 

<startopellat or treves of bles
T:Pripses of the Pene Hood, Toneed also "The cinolions.
Z:id:hn-hornpipe-


*****************************


10500 3 2.065463 

<starthpsise in <st played in DAAks
Z:id:hn-hornpipe-25
M:C|
L:1/8
K:G
(3G~E2|A2Ad g2fe|dBde fage|fabg ae


*****************************


10600 3 0.8389903 

<startonpoissiellteon.es (isharsion treather Hotinaon Gradain
R:hornpipe
D:Paliad Crennce
R:hornpipe
Z:id


*****************************


10700 3 1.289668 

<startoph?
DGBd|dBAG AGED|(3FGA (3Bcd AG=FG|
GEGA FAdB|cAFD ~G2B,|
|:GBGF|G2GF GF|G2GF ~G3A|G2DE D2DF|GFG


*****************************


10800 3 1.1404023 

<start atZ:
Stue was a rand her tun tuc tune to spide guckeo
T:If Warlem andarl Hcot un theak fordmone th


*****************************


10900 3 1.156817 

<start>
